X:215 
T:Rustiana 
C:Howard Rust 
M:C| 
L:1/16 
K:Am 
"Am" A2A4c2|e3cA4|e^def edef|e3cA4|
"E7"^G2G4A2|B3^GE4|e^def e=dcB|"Am"A6E2:|
"Am"e2Ac e2Ac|e2e2 d2c2|"G"d2GB d2GB|d2d2 c2B2|
"F"c2FA c2FA|c2c2 B2A2|"E"^G2GA B2G2|E6E2|
"Am"A2AB c2A2|a2e2 c2A2|"G"G2GA B2G2|g2d2 B2G2|
"F"F2FG A2F2|f2c2 A2F2|"E7"e^def edef|~e8|]
